!!!OTL: Des Grafen Toechterlein Ich weiss eins Grauen Toechterlein,
!!!ARE: Europa, Mitteleuropa, Deutschland
!!!YOR: 3, S. 182
!!    1580 gedruckt in Frankfurt
!!!SCT: Q0063
!!!YEM: Copyright 1995, estate of Helmut Schaffrath.
**kern
*ICvox
*Ivox
!! Irregular meter.
*MX
*k[b-]
*F:
{4f
=1
2f
4e
2d
4c
=2
2f
4g
2f}
{4f
=3
2g
8f
8g
2b-
4b-
=4
2a
8g
8f
2g}
{4g
=5
2g
8f
8g
2g
8f
8g
=6
2a
2g
=7
2f}
{4a
=8
2g
8f
8g
2e
8d
8c
=9
2f
8g
8a
2g}
{[4a
=10
4a]
4g
4f
8d
8c
8d
8e
4f
4g
=11
2g
2f}
==
!!!AGN: Ballade, Liebe, Standesunterschied, Strafe, Gnade
!! Taktart in "FREI" geaendert.
!!!ONB: ESAC (Essen Associative Code) Database: BALLADE
!!!AMT: irregular
!!!AIN: vox
!!!EED: Helmut Schaffrath
!!!EEV: 1.0
*-
